!!!!SEGMENT: pl-kozmzk--mzk-m-31--001-010_szymanowska-maria--vingt-exercices-et-preludes-pour-le-pianoforte-preludium-es-moll.krn
!!!cenid: 18xx:446
!!!COM: Szymanowska, Maria
!!!COM-rismID: pe140138
!!!CDT: 1789/12/14-1831/07/25
!!!CNT: Polish
!!!GTL: Vingt Exercices et Préludes pour le Pianoforte
!!!OTL: Preludium es-moll
!!!OMV: 010
!!!PDT: 1819
!!!AGN: Secular; Prelude
!!!SMS-siglum: PL-KOZmzk
!!!SMS-shelfmark: mzk/m/31
!!!SMS-shelfwork: 001-010 G
!!!SMS-variant:
!!!SMS-altvar:
!!!NIFC-rismSourceID: 1001025323
!!!NIFC-rismChildID: 1001025333
!!!NIFC-islandoraID: pl-kozmzk:6325
!!!URL-pdf-islandora: https://repozytorium.nifc.pl/islandora/object/pl-kozmzk%3A6325/datastream/PDF/view
!!!URL-scan: https://polish.musicsources.pl/pl/lokalizacje/galeria/rekopisy/462 @EN{Scan on Polish Music Sources Website} @PL{Skany w portalu Dziedzictwo Muzyki Polskiej w otwartym dostępie}
!!!IIIF:
!!!ONB-nifc:
!!!AIN: 1 empty
!!!key:
!!!OMD:
!!!OMD-mod: Comodo
**kern	**kern	**dynam
*part1	*part1	*part1
*staff2	*staff1	*
*Iempty	*Iempty	*
*I"	*	*
*mI"[Pianoforte]	*mI"[Pianoforte]	*
*I'[pf]	*I'[pf]	*
*clefF4	*clefG2	*
*k[b-e-a-d-g-c-]	*k[b-e-a-d-g-c-]	*
*e-:	*e-:	*
*M2/4	*M2/4	*
=1	=1	=1
!	!LO:MO:mod=!null:null	!
!	!LO:TX:a:i:t=No 10.	!
!	!LO:TX:a:i:t=Commodo.:mod=	!LO:DY:a
!	!	!LO:MO:mod=*null:null
*	*	*below
16EE-/LL	2r	p
16FF/	.	.
16GG-/	.	.
16AA-/JJ	.	.
!LO:MO:mod=!LO&colon;TX&colon;a&colon;i&colon;t=ben marcato	!	!
!LO:TX:a:i:t=ben      marcato.	!	!
16BB-/LL	.	.
16Cn/	.	.
16Dn/	.	.
16E-/JJ	.	.
=2	=2	=2
16F\LL	2r	.
16G-\	.	.
16A-\	.	.
16B-\JJ	.	.
16cn\LL	.	.
16dn\	.	.
16e-\	.	.
16f\JJ	.	.
=3	=3	=3
!LO:MO:mod=!null:null	!	!
!LO:N:vis=2	!	!
8E-\L	16e-/LL	.
.	16f/	.
!LO:MO:mod=!null:null	!	!LO:MO:mod=!null:null
!LO:TX:a:t=problem:extended text	!	!LO:HP:t=[crescendo]:ext=[cd]
8e- 8B- 8G-\	16g-/	<
.	16a-/JJ	.
8e- 8B- 8G-\	16b-/LL	.
.	16ccn/	.
8e-J 8B- 8G-\	16ddn/	.
.	16ee-/JJ	.
=4	=4	=4
!LO:MO:mod=!null:null	!	!
!LO:N:vis=2	!	!
8D-\L	16ff\LL	.
.	16gg-\	.
8e- 8B- 8G-\	16aa-\	.
.	16bb-\JJ	.
8e- 8B- 8G-\	16cccn\LL	.
.	16dddn\	.
8e-J 8B- 8G-\	16eee-\	.
.	16fff\JJ	.
!!LO:LB:g=original
=5	=5	=5
8C-`/	16ggg-`\LL	.
.	(16dddn\	.
8e-L 8c- 8G-\	16eee-\)	.
.	16aan`\JJ	.
8e-J 8c- 8G-\	(16bb-^<\LL	.
.	16gg-\	.
8r	16ff\	.
.	16ee-\JJ)	.
=6	=6	=6
8BB-`/	16ggg-`\LL	.
.	(16dddn\	.
8e-L 8B- 8G-\	16eee-\)	.
.	16aan`\JJ	.
8e-J 8B- 8G-\	(16bb-^<\LL	.
.	16gg-\	.
8r	16ff\	.
.	16ee-\JJ)	.
=7	=7	=7
!LO:TX:t=P:problem=mixed beam	!	!
8AA-/L	16r	.
.	16cc-\LL	.
8fJ 8c- 8A-\	16gg- 16cc-^\	.
.	16ff\JJ	.
!LO:TX:t=P:problem=mixed beam	!	!
8BB-/L	16r	.
.	16dd-\LL	.
8gnJ 8d- 8B-\	16aa- 16dd-^\	.
.	16ggn\JJ	.
=8	=8	=8
!LO:TX:t=P:problem=mixed beam	!	!
8C-/L	16r	.
.	16ee-\LL	.
8a-J 8e- 8c-\	16bb- 16ee-^\	.
.	16aa-\JJ	.
!LO:TX:t=P:problem=mixed beam	!	!
8C-/L	16r	.
.	16ee-\LL	f
8anJ 8e- 8c-\	16ggg- 16ee-^\	.
.	16aan\JJ	.
=9	=9	=9
8BB-/	16r	.
.	16ddn\LL	.
*clefG2	*	*
8b-/L	16ccc- 16ff 16dd^\	.
.	16bb-\JJ	.
8B-/	16r	.
.	16b-\LL	.
8b-/J	16aa- 16ee- 16b-^\	.
.	16gg-\JJ	.
!!LO:LB:g=original
=10	=10	=10
8B-/L	16r	.
.	16a-\LL	.
8b-/J	16gg- 16ddn 16a-^\	.
.	16ff\JJ	.
8B-/L	16r	.
.	16g-\LL	.
8b-/J	16ff 16b- 16g-^\	.
.	16ee-\JJ	.
=11	=11	=11
8B-/L	16r	.
.	16f/LL	.
8b-/J	16ee- 16a- 16f/	.
.	16ddn/JJ	.
8B-/L	16r	.
.	16g-/LL	.
8b-/J	16ff 16b- 16g-/	.
.	16ee-/JJ	.
=12	=12	=12
8B-/L	16r	.
.	16a-\LL	.
8b-/J	16gg- 16ddn 16a-\	.
.	16ff\JJ	.
*clefF4	*	*
!LO:TX:t=P:problem=mixed beam	!	!
8B-\L	16r	.
.	16ee-\LL	.
8BB-/J	16aan 16gg-\	.
.	16ee-\JJ	.
=13	=13	=13
!LO:TX:t=P:problem=mixed beam	!	!
8B-\L	16r	.
.	16ddn\LL	.
8BB-/J	16bb- 16ff\	.
.	16dd\JJ	.
!LO:TX:t=P:problem=mixed beam	!	!
8c-X^>\L	16r	.
.	16e-/LL	.
8BB-/J	16an 16f/	.
.	16e-/JJ	.
=14	=14	=14
!LO:TX:t=P:problem=mixed beam	!	!
8B-\L	16r	.
.	16dn/LL	.
8BB-/J	16b- 16f/	.
.	16d/JJ	.
!LO:TX:t=P:problem=mixed beam	!	!
8An^>\L	16r	.
.	16cc-LL 16g-X 16e-/	.
8BB-/J	16ddn/	.
.	16cc-/JJ	.
!!LO:LB:g=original
=15	=15	=15
.	8qdn/	.
!LO:MO:mod=!null:null	!LO:MO:mod=!null:null	!LO:MO:mod=!null:null
!LO:TX:a:t=problem:extended text	!	!LO:HP:t=[diminuendo]:ext=[cd]
!	!LO:TX:a:t=problem:obiegnik pod nutą	!
4B- 4BB-\	8.b-/LsS	>
.	16ccn/Jk	.
4r	16ddn/LL	.
.	16b-/	.
.	16f/	.
.	16d/JJ	.
=16	=16	=16
!LO:MO:mod=!null:null	!LO:MO:mod=!null:null	!
!LO:TX:a:t=problem:przekreślony obiegnik pod nutą	!LO:TX:a:t=problem:łuk zaczyna się dopiero pod koniec taktu	!
8.BB-/LsS	[2B-/	.
16Cn/Jk	.	.
16Dn/LL	.	.
16BB-/	.	.
16FF/	.	.
16DDn/JJ	.	.
=17	=17	=17
!LO:MO:mod=!null:null	!	!
!LO:N:vis=2.	!	!
(2BBB-/	4B-/]	.
.	[4bb-^\	.
=18	=18	=18
4BB-/)	8bb-\L]	.
.	8aa-\	.
4r	8ff\	.
.	8gg-\J	.
=19	=19	=19
!	!LO:MO:mod=!LO&colon;TX&colon;b&colon;i&colon;t=espress. e agitato	!
!LO:TUP:a	!LO:TX:b:i:t=espres    ed    agitato	!
24r	8ee-\L	.
(24E-\LL	.	.
24G-\	.	.
24B-\	8b-\J	.
24e-\	.	.
24f\JJ	.	.
!	!LO:TUP:a	!
4g-\)	24r	.
.	(24ee-\LL	.
.	24ff\	.
.	24gg-^<\	.
.	24ff\	.
.	24ee-\JJ)	.
=20	=20	=20
!LO:TUP:a	!LO:TUP:a	!
24r	(24ee-\LL	.
(24F\LL	24ddn\	.
24B-\	24cc-\J)	.
24dn\	[8b-\J	.
24f\	.	.
24g-\JJ)	.	.
!	!LO:TUP:a	!
!	!LO:SIC:s=24b-\LL]:v	!
4a-\	(24b-\LL]	.
!	!LO:SIC:s=(24ff\:v	!
.	24ff\	.
.	24gg-\	.
.	24aa-\	.
.	24gg-^\	.
.	24ff\JJ)	.
!!LO:LB:g=original
=21	=21	=21
!LO:MO:mod=*null:null	!	!
*Xtuplet	*	*
!	!LO:TUP:a	!
24r	(24ff\LL	.
(24G-\LL	24ddn\	.
24B-\	24ee-\J)	.
24e-\	[8bb-\J	.
24f\	.	.
24g-\JJ)	.	.
*clefG2	*	*
4b-/	32bb-\LLL]	.
.	32aan\	.
.	32bb-\	.
.	32aa\	.
.	32ccc-\	.
.	32bb-\	.
.	32aa-X\	.
.	32gg-\JJJ	.
=22	=22	=22
*	*^	*
4f 4e- 4c- 4A-/	16gg-/LL	8cc-\	.
.	16ff/JJ	.	.
*	*v	*v	*
.	16qqff/LL	.
.	16qqgg-/	.
.	16qqff/	.
.	16qqee-/	.
.	16qqff/JJ	.
!	!LO:MO:mod=*null:null	!
*	*Xtuplet	*
.	24aa-\LL	.
.	24gg-\	.
.	24ff\JJ	.
!	!	!LO:MO:mod=!null:null
.	8qqcc-/	ff
*	*8va	*
!	!	!LO:TX:a:t=8va
!	!	!LO:DY:t= :mod=%s
!	!	!LO:MO:mod=!LO&colon;DY&colon;ed=
!	!	!null
4f 4e- 4c- 4A-;/	4cccc-;\	ff
.	qq32bbb-\LLL	.
.	qq32aaa-\	.
.	qq32ggg-\	.
.	qq32fff\	.
.	qq32eee-\	.
.	qq32dddn\	.
.	qq32ccc-\	.
*	*X8va	*
!	!LO:MO:mod=!null:null	!
!	!LO:TX:a:i:t=loco	!
.	qq32bb-\	.
.	qq32aa-\	.
.	qq32gg-\	.
.	qq32ff\	.
.	qq32ee-\	.
.	qq32ddn\	.
.	qq32cc-\	.
.	qq32b-\	.
.	qq32a-\	.
.	qq32g-\	.
.	qq32f\	.
.	qq32e-\	.
.	qq32dn\	.
.	qq32c-\	.
.	qq32B-\JJJ	.
*	*tuplet	*
!	!LO:TUP:b	!
!	!LO:TX:t=P:problem:septymola	!
.	qq(32A-/LLL	.
.	qq32B-/	.
.	qq32c-/	.
.	qq32B-/	.
.	qq32An/	.
.	qq32B-/	.
.	qq32cn/JJJ)	.
!	!LO:TUP:b	!
!	!LO:TX:t=P:problem:sekstola	!
.	qq32dn/LLL	.
.	qq32c/	.
.	qq32B-/	.
.	qq32c/	.
.	qq32d/	.
.	qq32e-/JJJ	.
!!LO:LB:g=original
!	!LO:MO:mod=*null:null	!
*	*Xtuplet	*
.	qq32f/LLL	.
.	qq32e-/	.
.	qq32dn/	.
.	qq32e-/	.
.	qq32f/	.
.	qq32g-/JJJ	.
.	qq32a-/LLL	.
.	qq32g-/	.
.	qq32f/	.
.	qq32g-/	.
.	qq32a-/	.
.	qq32b-/JJJ	.
!	!LO:MO:mod=!LO&colon;TX&colon;b&colon;i&colon;t=rallent.	!
!	!LO:TX:b:i:t=rallent	!
.	qq32dd'/LLL	.
.	qq32cc-X'/	.
.	qq32b-'/	.
.	qq32a-'/	.
.	qq32gn'/	.
.	qq32g-X'/JJJ	.
=23	=23	=23
*clefF4	*	*
*	*^	*
!	!LO:MO:mod=!LO&colon;TX&colon;a&colon;i&colon;t=a tempo	!	!
!	!null	!	!
4A- 4AA-\	24f/LL	4c-\	f
!	!LO:MO:mod=!null:null	!	!
!	!LO:TX:b:i:t=a tempo	!	!
.	24g-/	.	.
.	24f/	.	.
.	24e-/	.	.
.	24f/	.	.
.	24g-/JJ	.	.
*	*v	*v	*
4r	24a-\LL	.
.	24g-\	.
.	24f\	.
.	24a-\	.
.	24.gg-^\	.
.	48ff\JJk	.
=24	=24	=24
8B- 8BB-\	8ee- 8b- 8g-\	.
8r	8r	.
8B- 8BB-\	8ddn 8a- 8f/	.
8r	8r	.
=25	=25	=25
*	*tuplet	*
!	!LO:TUP:b	!
8E-`\	(24f/LL	pp
.	24g-/	.
.	24b-/	.
8r	24ee-/	.
.	24b-/	.
.	24g-/JJ)	.
!	!LO:MO:mod=*null:null	!
*	*Xtuplet	*
8dn`\	24r	.
.	(24e-/LL	.
.	24g-/	.
8r	24b-/	.
.	24g-/	.
.	24e-/JJ)	.
=26	=26	=26
8An\	24r	.
.	(24B-/LL	.
.	24g-/	.
8r	24e-/	.
.	24B-/	.
.	24G-/JJ)	.
!LO:MO:mod=!null:null	!LO:MO:mod=!null:null	!
!LO:N:vis=4.	!LO:N:vis=4.	!
!LO:MO:mod=!null:null	!	!
!LO:TX:b:t=3 0 4 3	!	!
4EE-;<\	4E-/;>	.
==	==	==
*-	*-	*-
!!!system-decoration: {(s1,s2)}
!!!RDF**kern: >= above
!!!RDF**kern: <= below
!!!filter-modern: sic -sq | shed -e "s/LO:DY:(a|b|rj)/LO:dy:$1/L" | shed -e "s/TX(.*):t=P:/tx$1:t=P:/LG" | modori -m | autostem -r | shed -e "s/yy//" | shed -k -e "s/\(y([^y])/($1/" | shed -e "s/-//B" | shed -e "s/^(\d+[\/\\]right)/$1yy/I; s/^(\d+[\/\\]left)/$1yy/I" | shed -k -e "s/[<>]//g" | shed -k -e "s/:TUP:/:tup:/L"
!!!ENC: Anna Matuszewska
!!!END: 2020-07-19
!!!EED-modern: Antoni Szymański
!!!END-modern: 2022-09-11
!!!YEC: Copyright 2022 Narodowy Instytut Fryderyka Chopina (https://polishscores.org)
!!!YEM: License CC-BY-4.0 (https://creativecommons.org/licenses/by/4.0)
